Adwaita++/apps/symbolic/calendario-symbolic.svg

<svg enable-background="new" height="16" width="16" xmlns="http://www.w3.org/2000/svg">
  <g transform="translate(-112 -668)">
    <path d="m115.71484 669c-1.48641 0-2.71484 1.22842-2.71484 2.71484v8.57032c0 1.48641 1.22843 2.71484 2.71484 2.71484h8.57032c1.48641 0 2.71484-1.22843 2.71484-2.71484v-8.57032c0-1.48642-1.22843-2.71484-2.71484-2.71484zm0 2h8.57032c.41301 0 .71484.30182.71484.71484v3.6211l-.66406.66406.66406.66406v3.6211c0 .413-.30183.71484-.71484.71484h-8.57032c-.41301 0-.71484-.30184-.71484-.71484v-3.57813l.70703-.70703-.70703-.70703v-3.57813c0-.41302.30183-.71484.71484-.71484z" fill="#474747"/>
    <path d="m116.51791 673-.51791 1.03584h1.01396v4.96416h1.98604v-6zm3.43732 0v3.21297c0 1.03581.77686 1.03581 1.29477 1.03581h.75583v1.75122h1.99417v-2.89768-3.10232h-1.99417v3h-.72458c-.25896 0-.25896-.25892-.25896-.25892v-2.74108z" fill="#444"/>
  </g>
</svg>

<svg xmlns="http://www.w3.org/2000/svg" style="enable-background:new" width="16" height="16" version="1.1">
 <title id="title8473">
  Gnome Symbolic Icons
 </title>
 <g id="layer3" transform="translate(-112,-668)">
  <path d="M 115.71484,669 C 114.22843,669 113,670.22842 113,671.71484 v 8.57032 c 0,1.48641 1.22843,2.71484 2.71484,2.71484 h 8.57032 C 125.77157,683 127,681.77157 127,680.28516 v -8.57032 C 127,670.22842 125.77157,669 124.28516,669 Z m 0,2 h 8.57032 c 0.41301,0 0.71484,0.30182 0.71484,0.71484 v 3.6211 L 124.33594,676 125,676.66406 v 3.6211 c 0,0.413 -0.30183,0.71484 -0.71484,0.71484 h -8.57032 C 115.30183,681 115,680.69816 115,680.28516 v -3.57813 L 115.70703,676 115,675.29297 v -3.57813 C 115,671.30182 115.30183,671 115.71484,671 Z" style="solid-color:#444;fill:#444"/>
  <path fill="#444" d="M 116.51791,673 116,674.03584 h 1.01396 V 679 H 119 v -6 z m 3.43732,0 v 3.21297 c 0,1.03581 0.77686,1.03581 1.29477,1.03581 h 0.75583 V 679 H 124 V 676.10232 673 h -1.99417 v 3 h -0.72458 c -0.25896,0 -0.25896,-0.25892 -0.25896,-0.25892 V 673 Z"/>
 </g>
</svg>
